X: 1
T:Brudemarsch \#3
R:Sonderh\o{}ning
O:Denmark
M:2/4
A:Fan\o{}
K:D
d3d d2A2|d2ed cBA2|d2d2 e2eg|f2f2 f2ed|e2e2 e4::
f2g2 a2b2|a2ag f2fe|d2ef g2g2|f2ed cBA2|\
d2d2 e2eg|f2a2 ggec|d4d4:|
